assets/images/Ilaris/phex.svg

<svg xmlns="http://www.w3.org/2000/svg" width="640" height="640" viewBox="0 0 2000 2000"><path fill="beige" stroke="#000" stroke-width="15" d="m914 .14-37 4.02-55 8.26c-61.73 11.13-122.35 27.69-181 50-121.97 46.4-233.56 116.75-329 205.67L288 292c-98.74 98.74-175.93 218.48-225.58 349-23.63 62.14-40.84 126.45-51.83 192C7.32 852.49.03 903.93 0 922v151l6.73 64c5.14 35.64 11.8 71.08 20.64 106 53.74 212.29 177.46 404.22 349.63 539.79 91.91 72.37 193.08 126.9 304 163.88 63.56 21.18 133.35 37.36 200 44.49l57 4.88 11 1h13l12 .96h47l17-1 57-3.83c76.31-7.63 147.2-22.57 220-46.84 38.94-12.98 77.05-28.19 114-46.07l26-12.57 44-24.11c66.28-38.47 127.95-84.44 184-136.67l24-23.91c130.06-130.06 221.46-295.13 263.88-474 10.5-44.25 17.77-88.78 22.29-134l2.83-30v-9l1.04-10v-13l.96-12v-47l-1-15c-.54-46.08-7.37-97.53-15.58-143-16.91-93.79-48.97-189.29-92.68-274-47.83-92.7-108.97-177.23-182.74-251l-23-22.91c-108.78-101.35-231.13-173.8-372-220.76-51.64-17.21-100.37-28.64-154-37.58-17.8-2.96-65.44-9.55-82-9.61H914Z"/><path fill="#b87333" stroke="#000" stroke-width="20" d="M997.09 755.55 294 285 68.67 1370l927.66 627.67 928.34-622.34L1703.5 288.5 997.12 755.75"/><path fill="none" stroke="#000" stroke-width="20" d="m294 285.09 702.73 1712.73L1703.5 288.56M294 285.09l703.06 470.35 706.44-466.91"/></svg>

<?xml version="1.0" encoding="UTF-8" standalone="no"?>
<!DOCTYPE svg PUBLIC "-//W3C//DTD SVG 20010904//EN"
              "http://www.w3.org/TR/2001/REC-SVG-20010904/DTD/svg10.dtd">

<svg xmlns="http://www.w3.org/2000/svg"
     width="6.66667in" height="6.66667in"
     viewBox="0 0 2000 2000">
  <path id="Auswahl"
        fill="beige" stroke="black" stroke-width="15"
        d="M 914.00,0.14
           C 914.00,0.14 877.00,4.16 877.00,4.16
             877.00,4.16 822.00,12.42 822.00,12.42
             760.27,23.55 699.65,40.11 641.00,62.42
             519.03,108.82 407.44,179.17 312.00,268.09
             312.00,268.09 288.00,292.00 288.00,292.00
             189.26,390.74 112.07,510.48 62.42,641.00
             38.79,703.14 21.58,767.45 10.59,833.00
             7.32,852.49 0.03,903.93 0.00,922.00
             0.00,922.00 0.00,999.00 0.00,999.00
             0.00,999.00 0.00,1073.00 0.00,1073.00
             0.00,1073.00 6.73,1137.00 6.73,1137.00
             11.87,1172.64 18.53,1208.08 27.37,1243.00
             81.11,1455.29 204.83,1647.22 377.00,1782.79
             468.91,1855.16 570.08,1909.69 681.00,1946.67
             744.56,1967.85 814.35,1984.03 881.00,1991.16
             881.00,1991.16 938.00,1996.04 938.00,1996.04
             938.00,1996.04 949.00,1997.04 949.00,1997.04
             949.00,1997.04 962.00,1997.04 962.00,1997.04
             962.00,1997.04 974.00,1998.00 974.00,1998.00
             974.00,1998.00 1021.00,1998.00 1021.00,1998.00
             1021.00,1998.00 1038.00,1997.00 1038.00,1997.00
             1038.00,1997.00 1095.00,1993.17 1095.00,1993.17
             1171.31,1985.54 1242.20,1970.60 1315.00,1946.33
             1353.94,1933.35 1392.05,1918.14 1429.00,1900.26
             1429.00,1900.26 1455.00,1887.69 1455.00,1887.69
             1455.00,1887.69 1499.00,1863.58 1499.00,1863.58
             1565.28,1825.11 1626.95,1779.14 1683.00,1726.91
             1683.00,1726.91 1707.00,1703.00 1707.00,1703.00
             1837.06,1572.94 1928.46,1407.87 1970.88,1229.00
             1981.38,1184.75 1988.65,1140.22 1993.17,1095.00
             1993.17,1095.00 1996.00,1065.00 1996.00,1065.00
             1996.00,1065.00 1996.00,1056.00 1996.00,1056.00
             1996.00,1056.00 1997.04,1046.00 1997.04,1046.00
             1997.04,1046.00 1997.04,1033.00 1997.04,1033.00
             1997.04,1033.00 1998.00,1021.00 1998.00,1021.00
             1998.00,1021.00 1998.00,974.00 1998.00,974.00
             1998.00,974.00 1997.00,959.00 1997.00,959.00
             1996.46,912.92 1989.63,861.47 1981.42,816.00
             1964.51,722.21 1932.45,626.71 1888.74,542.00
             1840.91,449.30 1779.77,364.77 1706.00,291.00
             1706.00,291.00 1683.00,268.09 1683.00,268.09
             1574.22,166.74 1451.87,94.29 1311.00,47.33
             1259.36,30.12 1210.63,18.69 1157.00,9.75
             1139.20,6.79 1091.56,0.20 1075.00,0.14
             1075.00,0.14 972.00,0.14 972.00,0.14
             972.00,0.14 914.00,0.14 914.00,0.14 Z" />
  <path id="Pfad"
        fill="#B87333" stroke="black" stroke-width="20"
        d="M 997.09,755.55
           C 997.09,755.55 294.00,285.00 294.00,285.00
             294.00,285.00 68.67,1370.00 68.67,1370.00
             68.67,1370.00 996.33,1997.67 996.33,1997.67
             996.33,1997.67 1924.67,1375.33 1924.67,1375.33
             1924.67,1375.33 1703.50,288.50 1703.50,288.50
             1703.50,288.50 997.12,755.75 997.12,755.75" />
  <path id="Pfad #1"
        fill="none" stroke="black" stroke-width="20"
        d="M 294.00,285.09
           C 294.00,285.09 996.73,1997.82 996.73,1997.82
             996.73,1997.82 1703.50,288.56 1703.50,288.56M 294.00,285.09
           C 294.00,285.09 997.06,755.44 997.06,755.44
             997.06,755.44 1703.50,288.53 1703.50,288.53" />
</svg>
